!!!COA:	Josquin des Prez
!!!CDT:	~1450-1521/08/27
!!!COA2:   Mahu?
!!!COA3:   Mouton?
!!!OTL:	Puer natus est nobis
!!!AGN:	Motet
!!!SCT:	NJE 26.10
!!!SCA:	New Josquin Edition 26.10
!!!voices:	4
**kern	**silbe	**kern	**silbe	**kern	**silbe	**kern	**silbe
*staff4	*staff4	*staff3	*staff3	*staff2	*staff2	*staff1	*staff1
*Ivox	*	*Ivox	*	*Ivox	*	*Ivox	*
*I"Bassus	*	*I"Tenor	*	*I"Altus	*	*I"Discantus	*
*I'B	*	*I'T	*	*I'A	*	*I'D	*
*clefF4	*	*clefGv2	*	*clefGv2	*	*clefG2	*
*k[b-]	*	*k[b-]	*	*k[b-]	*	*k[b-]	*
*M2/1	*	*M2/1	*	*M2/1	*	*M2/1	*
*met(C|)	*	*met(C|)	*	*met(C|)	*	*met(C|)	*
=1-	=1-	=1-	=1-	=1-	=1-	=1-	=1-
0r	.	0F	Pu-	1c	Pu-	0f	Pu-
.	.	.	.	[1f	.	.	.
=2	=2	=2	=2	=2	=2	=2	=2
0C	Pu-	0c	.	2f\]	.	0g	.
.	.	.	.	4e\	.	.	.
.	.	.	.	4d\	.	.	.
.	.	.	.	1e	.	.	.
=3	=3	=3	=3	=3	=3	=3	=3
0F	.	0c	-er	0f	-er	0a	-er
=4	=4	=4	=4	=4	=4	=4	=4
1F	-er	1c	na-	1f	na-	1a	na-
1B-	na-	[1d	-tus	[1g	-tus	[1b-	-tus
=5	=5	=5	=5	=5	=5	=5	=5
1B-	-tus	1d]	.	2g\]	.	1b-]	.
.	.	.	.	2f\	.	.	.
1F	est	2c\	est	[1f	est	1a	est
.	.	[2c\	no-	.	.	.	.
=6	=6	=6	=6	=6	=6	=6	=6
0G	no-	2c\]	.	2f\]	.	0b-	no-
.	.	4B-\	.	4e\	no-	.	.
.	.	4A/	.	4d\	.	.	.
.	.	1B-	.	1e	.	.	.
=7	=7	=7	=7	=7	=7	=7	=7
0F	-bis	0c	-bis	[0f	-bis	[0a	-bis
=8	=8	=8	=8	=8	=8	=8	=8
1r	.	1F	et	1f]	.	1a]	.
1C	et	[1c	fi-	1r	.	1r	.
=9	=9	=9	=9	=9	=9	=9	=9
1.F	fi-	2c\]	.	0r	.	0r	.
.	.	2c\	-li-	.	.	.	.
.	.	1c	-us	.	.	.	.
2F\	-li-	.	.	.	.	.	.
=10	=10	=10	=10	=10	=10	=10	=10
1F	-us	2d\	da-	0r	.	0r	.
.	.	1c	.	.	.	.	.
1G	da-	.	.	.	.	.	.
.	.	4B-\	.	.	.	.	.
.	.	4A/	.	.	.	.	.
=11	=11	=11	=11	=11	=11	=11	=11
1G	-tus	1B-	-tus	0r	.	0r	.
[1F	est	2A/	est	.	.	.	.
.	.	[2d\	no-	.	.	.	.
=12	=12	=12	=12	=12	=12	=12	=12
2F\]	.	2d\]	.	0r	.	1r	.
2E\	.	1c	.	.	.	.	.
1D	no-	.	.	.	.	1f	et
.	.	2B-\	.	.	.	.	.
=13	=13	=13	=13	=13	=13	=13	=13
1C	-bis	2A/	.	1c	et	1.cc	fi-
.	.	2G/	.	.	.	.	.
1r	.	[1F	-bis	[1f	fi-	.	.
.	.	.	.	.	.	2cc\	-li-
=14	=14	=14	=14	=14	=14	=14	=14
0r	.	1F]	.	2f\]	.	1cc	-us
.	.	.	.	2f\	-li-	.	.
.	.	1r	.	1f	-us	2dd\	da-
.	.	.	.	.	.	[2cc\	.
=15	=15	=15	=15	=15	=15	=15	=15
0r	.	0r	.	1g	da-	2cc\]	.
.	.	.	.	.	.	2b-\	.
.	.	.	.	[1f	-tus	1a	-tus
=16	=16	=16	=16	=16	=16	=16	=16
0r	.	1r	.	2f\]	.	1g	est
.	.	.	.	2e\	est	.	.
.	.	2r	.	2d\	no-	2a/	no-
.	.	2C/	et	2c\	.	[2cc\	.
=17	=17	=17	=17	=17	=17	=17	=17
1r	.	1G	fi-	1d	.	2cc\]	.
.	.	.	.	.	.	2bni\	.
1C	et	2G/	-li-	1c	-bis	1cc	-bis
.	.	2G/	-us	.	.	.	.
=18	=18	=18	=18	=18	=18	=18	=18
1.F	fi-	1.A	da-	2r	.	1a	et
.	.	.	.	2c\	et	.	.
.	.	.	.	1f	fi-	2a/	fi-
2F\	-li-	2F/	.	.	.	2a/	-li-
=19	=19	=19	=19	=19	=19	=19	=19
1F	-us	1c	.	2f\	-li-	1a	-us
.	.	.	.	2f\	-us	.	.
1G	da-	1B-	-tus	2d\	da-	1b-	da-
.	.	.	.	2e\	-tus	.	.
=20	=20	=20	=20	=20	=20	=20	=20
2F\	-tus	1c	est	2f\	est	2a/	-tus
2C/	est	.	.	2e\	no-	2.g/	est
1D	no-	2A/	no-	2d\	.	.	.
.	.	.	.	.	.	4f/	.
.	.	2F/	.	2B-\	.	[2f/	no-
=21	=21	=21	=21	=21	=21	=21	=21
1C	.	1G	.	1c	.	2f/]	.
.	.	.	.	.	.	2e/	.
[1F	-bis	[1F	-bis	1A	-bis	[1f	-bis
=22	=22	=22	=22	=22	=22	=22	=22
0F_	.	0F_	.	1r	.	1f]	.
.	.	.	.	1c	Hec	1r	.
=23	=23	=23	=23	=23	=23	=23	=23
1F]	.	1F]	.	2c\	di-	1a	Hec
.	.	.	.	2c\	-es	.	.
1r	.	1r	.	2.A/	quam	1a	di-
.	.	.	.	4B-\	.	.	.
=24	=24	=24	=24	=24	=24	=24	=24
0r	.	0r	.	2c\	.	1a	-es
.	.	.	.	2.d\	fe-	.	.
.	.	.	.	.	.	1f	quam
.	.	.	.	4c\	.	.	.
.	.	.	.	4B-\	.	.	.
.	.	.	.	4A/	.	.	.
=25	=25	=25	=25	=25	=25	=25	=25
0r	.	0r	.	2G/	-cit	1g	fe-
.	.	.	.	2.c\	do-	.	.
.	.	.	.	.	.	[1a	-cit
.	.	.	.	4B-\	.	.	.
.	.	.	.	4A/	.	.	.
.	.	.	.	4G/	.	.	.
=26	=26	=26	=26	=26	=26	=26	=26
0r	.	0r	.	2F/	.	1a]	.
.	.	.	.	4D/	.	.	.
.	.	.	.	4E/	.	.	.
.	.	.	.	4F/	.	2.f/	do-
.	.	.	.	4G/	.	.	.
.	.	.	.	4A/	.	.	.
.	.	.	.	4B-\	.	4g/	.
=27	=27	=27	=27	=27	=27	=27	=27
0r	.	0r	.	2c\	.	4a/	.
.	.	.	.	.	.	4f/	.
.	.	.	.	2.d\	.	2.b-\	.
.	.	.	.	4c\	.	4a/	.
.	.	.	.	4B-\	.	[2a/	.
.	.	.	.	4A/	.	.	.
=28	=28	=28	=28	=28	=28	=28	=28
1r	.	0r	.	1B-	-mi-	2a/]	.
.	.	.	.	.	.	2g/	-mi-
1F	e-	.	.	[1A	-nus	[1a	-nus
=29	=29	=29	=29	=29	=29	=29	=29
2F\	-xul-	0r	.	0A]	.	0a]	.
2F\	-te-	.	.	.	.	.	.
1D	-mus	.	.	.	.	.	.
=30	=30	=30	=30	=30	=30	=30	=30
1E	et	1c	e-	0r	.	0r	.
1F	le-	2c\	-xul-	.	.	.	.
.	.	2c\	-te-	.	.	.	.
=31	=31	=31	=31	=31	=31	=31	=31
2F\	-te-	2.A/	.	0r	.	0r	.
2G\	.	.	.	.	.	.	.
.	.	4B-\	.	.	.	.	.
2A\	.	2c\	-mus	.	.	.	.
[2B-\	.	[2d\	et	.	.	.	.
=32	=32	=32	=32	=32	=32	=32	=32
4B-\]	.	2d\]	.	1d	Gau-	0r	.
4A\	.	.	.	.	.	.	.
1A	.	2c\	le-	.	.	.	.
.	.	1B-	-te-	1d	-de-	.	.
2G\	.	.	.	.	.	.	.
=33	=33	=33	=33	=33	=33	=33	=33
1A	-mur	1A	-mur	1c	-a-	1a	Gau-
1r	.	1r	.	1f	-mus	1a	-de-
=34	=34	=34	=34	=34	=34	=34	=34
0r	.	0r	.	1e	om-	1g	-a-
.	.	.	.	1c	-nes	1cc	-mus
=35	=35	=35	=35	=35	=35	=35	=35
1r	.	1r	.	1d	in	1b-	om-
1C	in	1c	in	1e	do-	1g	-nes
=36	=36	=36	=36	=36	=36	=36	=36
1F	do-	2A/	do-	1.f	.	1a	in
.	.	1c	.	.	.	.	.
[1G	-mi-	.	.	.	.	[1b-	do-
.	.	4B-\	.	4e\	.	.	.
.	.	4A/	.	4d\	.	.	.
=37	=37	=37	=37	=37	=37	=37	=37
1G]	.	1B-	-mi-	1e	-mi-	2b-\]	.
.	.	.	.	.	.	2b-\	-mi-
1F	-no	1c	-no	1f	-no	1a	-no
=38	=38	=38	=38	=38	=38	=38	=38
1D	dan-	1d	dan-	1f	dan-	1a	dan-
1D	-tes	1d	-tes	1f	-tes	1a	-tes
=39	=39	=39	=39	=39	=39	=39	=39
1.G	glo-	1.B-	glo-	1.d	glo-	1.b-	glo-
2G\	-ri-	2B-\	-ri-	2e\	-ri-	2b-\	-ri-
=40	=40	=40	=40	=40	=40	=40	=40
1F	-am	1c	-am	1f	-am	1a	-am
1C	no-	[1c	no-	1e	no-	1g	no-
=41	=41	=41	=41	=41	=41	=41	=41
1F	-mi-	2c\]	.	1.f	-mi-	2a/	-mi-
.	.	2c\	-mi-	.	.	1cc	-ni
1A	-ni	1c	-ni	.	.	.	.
.	.	.	.	2f\	-ni	4bni\	e-
.	.	.	.	.	.	4a/	.
=42	=42	=42	=42	=42	=42	=42	=42
1G	e-	1d	e-	1g	e-	1bni	.
1C	-jus	[1c	-jus	[1e	-jus	[1cc	-jus
=43	=43	=43	=43	=43	=43	=43	=43
1r	.	1c]	.	0e_	.	0cc_	.
1C	Can-	1c	Can-	.	.	.	.
=44	=44	=44	=44	=44	=44	=44	=44
2C/	-te-	2c\	-te-	1e]	.	1cc]	.
2C/	-mus	2c\	-mus	.	.	.	.
2D\	nunc	2A/	nunc	1r	.	1r	.
2C/	u-	2c\	u-	.	.	.	.
=45	=45	=45	=45	=45	=45	=45	=45
2D\	-na-	2B-\	-na-	1r	.	1r	.
2E\	-ni-	2G/	-ni-	.	.	.	.
[1F	-mes	1A	-mes	1c	Can-	1cc	Can-
=46	=46	=46	=46	=46	=46	=46	=46
1F]	.	0r	.	2c\	-te-	2cc\	-te-
.	.	.	.	2c\	-mus	2cc\	-mus
1r	.	.	.	2d\	nunc	2a/	nunc
.	.	.	.	2c\	u-	2cc\	u-
=47	=47	=47	=47	=47	=47	=47	=47
0r	.	0r	.	2d\	-na-	2b-\	-na-
.	.	.	.	2e\	-ni-	2g/	-ni-
.	.	.	.	1f	-mes	1a	-mes
=48	=48	=48	=48	=48	=48	=48	=48
2r	.	1r	.	2r	.	2r	.
2C/	Vi-	.	.	2e\	Vi-	2g/	Vi-
1F	-vat	2r	.	1f	-vat	1a	-vat
.	.	2A/	Vi-	.	.	.	.
=49	=49	=49	=49	=49	=49	=49	=49
1C	rex	1c	-vat	1e	rex	1g	rex
2r	.	1c	rex	2r	.	2r	.
2C/	vi-	.	.	2e\	vi-	2g/	vi-
=50	=50	=50	=50	=50	=50	=50	=50
1F	-vat	2r	.	1f	-vat	1a	-vat
.	.	2A/	vi-	.	.	.	.
1C	rex	1c	-vat	1e	rex	1g	rex
=51	=51	=51	=51	=51	=51	=51	=51
2r	.	1c	rex	2r	.	2r	.
2C/	vi-	.	.	2e\	vi-	2g/	vi-
1F	-vat	2r	.	1f	-vat	1a	-vat
.	.	2A/	vi-	.	.	.	.
=52	=52	=52	=52	=52	=52	=52	=52
1C	rex	2c\	-vat	1e	rex	2g/	rex
.	.	2c\	rex	.	.	1a	in
1D	in	2F/	in	2A/	in	.	.
.	.	2F/	e-	2B-\	e-	4g/	e-
.	.	.	.	.	.	4f/	.
=53	=53	=53	=53	=53	=53	=53	=53
2C/	e-	0G	-ter-	2c\	-ter-	2e/	-ter-
2BB-/	.	.	.	2d\	.	1f	.
1C	-ter-	.	.	1c	.	.	.
.	.	.	.	.	.	2e/	.
=54	=54	=54	=54	=54	=54	=54	=54
0Fl	-num	0Fl	-num	0cl	-num	0fl	-num
==	==	==	==	==	==	==	==
*-	*-	*-	*-	*-	*-	*-	*-
!!!RDF**kern: l=long note in original notation
!!!RDF**kern: i=editorial accidental
!!!RDF**kern: V=start of tuplet marker
!!!RDF**kern: Z=end of tuplet marker
!!!ENC:	Jesse Rodin 8-17-2012
!!!END:	2012/08/17/
!!!EED:	Jesse Rodin
!!!EEV:	2012/08/29/
!!attribution-level@Jos: 6 (very doubtful)
!!!ONB:	Translated from MusicXML and edited on 2012/08/29/ by Craig Sapp
!!muse2ps: C^Mahu?/Mouton?/Josquin?\n@{SCT}^i2I150v85,85,85,150Q16
